;FLAVOR:Marlin
;TIME:32706
;Filament used: 33.7133m
;Layer height: 0.2
;MINX:5.953
;MINY:9.433
;MINZ:0.2
;MAXX:170.567
;MAXY:165.227
;MAXZ:104.4
;TARGET_MACHINE.NAME:Kingroon KP3S
;Generated with Cura_SteamEngine 5.9.1
M140 S60
M105
M190 S60
M104 S200
M105
M109 S200
M82 ;absolute extrusion mode
G28 ; home all axes
 M117 Purge extruder
 G92 E0 ; reset extruder
 G1 Z1.0 F3000 ; move z up little to prevent scratching of surface
 G1 X2 Y20 Z0.3 F5000.0 ; move to start-line position
 G1 X2 Y175.0 Z0.3 F1500.0 E15 ; draw 1st line
 G1 X2 Y175.0 Z0.4 F5000.0 ; move to side a little
 G1 X2 Y20 Z0.4 F1500.0 E30 ; draw 2nd line
 G92 E0 ; reset extruder
 G1 Z1.0 F3000 ; move z up little to prevent scratching of surface
G92 E0
G92 E0
G1 F2400 E-1
;LAYER_COUNT:520
;LAYER:0
M107
G1 F240 Z0.6
G0 F6000 X12.28 Y35.45 Z0.6
;TYPE:SKIRT
G1 F240 Z0.2
G1 F2400 E0
G1 F1200 X13.16 Y35.014 E0.03593
G1 X14.074 Y34.655 E0.07186
G1 X15.128 Y34.347 E0.11203
G1 X16.053 Y34.163 E0.14654
G1 X17.117 Y34.046 E0.1857
G1 X17.621 Y34.026 E0.20415
G1 X18.793 Y34.006 E0.24704
G1 X68.905 Y34.007 E2.08044
G1 X69.641 Y34.017 E2.10737
G1 X70.261 Y34.044 E2.13008
G1 X72.565 Y34.234 E2.21466
G1 X75.009 Y34.372 E2.30422
G1 X77.566 Y34.444 E2.39781
G1 X80.027 Y34.444 E2.48784
G1 X82.566 Y34.372 E2.58077
G1 X85.089 Y34.231 E2.67323
G1 X87.499 Y34.026 E2.76172
G1 X90.012 Y33.74 E2.85425
G1 X92.509 Y33.384 E2.94653
G1 X94.994 Y32.961 E3.03875
G1 X97.403 Y32.477 E3.12865
G1 X99.854 Y31.912 E3.22068
G1 X102.263 Y31.285 E3.31175
G1 X104.712 Y30.574 E3.40505
G1 X107.093 Y29.808 E3.49656
G1 X109.415 Y28.989 E3.58664
G1 X111.731 Y28.098 E3.67743
G1 X114.096 Y27.109 E3.77121
G1 X116.322 Y26.104 E3.86057
G1 X118.63 Y24.981 E3.95448
G1 X120.833 Y23.832 E4.04538
G1 X122.973 Y22.639 E4.13502
G1 X125.147 Y21.342 E4.22764
G1 X127.289 Y19.983 E4.32045
G1 X129.326 Y18.608 E4.41036
G1 X131.37 Y17.143 E4.50237
G1 X133.394 Y15.601 E4.59546
G1 X135.301 Y14.063 E4.68509
G1 X137.51 Y12.186 E4.79115
G1 X138.317 Y11.559 E4.82854
G1 X139.174 Y11.009 E4.86579
G1 X139.973 Y10.585 E4.89889
G1 X141.019 Y10.144 E4.94042
G1 X141.879 Y9.867 E4.97347
G1 X142.989 Y9.617 E5.0151
G1 X143.916 Y9.493 E5.04932
G1 X144.634 Y9.448 E5.07564
G1 X145.273 Y9.433 E5.09902
G1 X158.338 Y9.433 E5.57702
G1 X159.244 Y9.447 E5.61017
G1 X160.261 Y9.512 E5.64746
G1 X161.233 Y9.658 E5.68342
G1 X162.263 Y9.909 E5.7222
G1 X163.193 Y10.225 E5.75814
G1 X164.161 Y10.654 E5.79688
G1 X165.052 Y11.147 E5.83413
G1 X165.836 Y11.672 E5.86865
G1 X166.691 Y12.365 E5.90892
G1 X167.421 Y13.074 E5.94615
G1 X168.038 Y13.786 E5.98062
G1 X168.683 Y14.677 E6.02086
G1 X169.147 Y15.453 E6.05394
G1 X169.641 Y16.479 E6.0956
G1 X169.998 Y17.435 E6.13294
G1 X170.27 Y18.418 E6.17026
G1 X170.436 Y19.306 E6.20331
G1 X170.554 Y20.669 E6.25336
G1 X170.567 Y21.303 E6.27656
G1 X170.566 Y34.485 E6.75884
G1 X170.556 Y35.222 E6.78581
G1 X170.528 Y35.838 E6.80837
G1 X170.418 Y37.377 E6.86482
G1 X170.279 Y39.889 E6.95686
G1 X170.21 Y42.426 E7.04971
G1 X170.214 Y44.885 E7.13968
G1 X170.288 Y47.418 E7.23239
G1 X170.536 Y51.278 E7.37391
G1 X170.567 Y52.303 E7.41142
G1 X170.566 Y65.485 E7.8937
G1 X170.556 Y66.222 E7.92067
G1 X170.528 Y66.838 E7.94323
G1 X170.418 Y68.377 E7.99968
G1 X170.279 Y70.889 E8.09172
G1 X170.21 Y73.426 E8.18458
G1 X170.214 Y75.885 E8.27454
G1 X170.288 Y78.418 E8.36725
G1 X170.536 Y82.278 E8.50877
G1 X170.567 Y83.303 E8.54629
G1 X170.566 Y96.485 E9.02856
G1 X170.556 Y97.222 E9.05553
G1 X170.528 Y97.838 E9.07809
G1 X170.418 Y99.377 E9.13454
G1 X170.279 Y101.889 E9.22659
G1 X170.21 Y104.426 E9.31944
G1 X170.214 Y106.885 E9.40941
G1 X170.288 Y109.418 E9.50212
G1 X170.536 Y113.278 E9.64363
G1 X170.567 Y114.303 E9.68115
G1 X170.566 Y127.435 E10.1616
G1 X170.554 Y128.222 E10.1904
G1 X170.491 Y129.24 E10.22771
G1 X170.339 Y130.248 E10.26501
G1 X170.13 Y131.127 E10.29806
G1 X169.769 Y132.208 E10.33976
G1 X169.357 Y133.139 E10.37701
G1 X168.864 Y134.036 E10.41446
G1 X168.294 Y134.881 E10.45175
G1 X167.703 Y135.616 E10.48625
G1 X166.942 Y136.406 E10.52638
G1 X166.23 Y137.026 E10.56093
G1 X165.341 Y137.671 E10.60111
G1 X164.532 Y138.155 E10.6356
G1 X163.543 Y138.632 E10.67577
G1 X162.625 Y138.979 E10.71168
G1 X161.604 Y139.264 E10.75046
G1 X160.672 Y139.438 E10.78515
G1 X159.331 Y139.554 E10.83439
G1 X158.697 Y139.567 E10.85759
G1 X145.517 Y139.566 E11.3398
G1 X144.771 Y139.556 E11.36709
G1 X144.159 Y139.528 E11.38951
G1 X143.413 Y139.475 E11.41687
G1 X140.792 Y139.327 E11.51292
G1 X138.26 Y139.255 E11.60559
G1 X135.805 Y139.255 E11.69541
G1 X133.273 Y139.327 E11.78808
G1 X130.747 Y139.469 E11.88064
G1 X128.324 Y139.676 E11.96962
G1 X125.801 Y139.963 E12.06252
G1 X123.318 Y140.316 E12.15427
G1 X120.854 Y140.737 E12.24573
G1 X118.451 Y141.219 E12.3354
G1 X115.945 Y141.797 E12.42949
G1 X113.571 Y142.416 E12.51925
G1 X111.133 Y143.124 E12.61213
G1 X108.763 Y143.885 E12.7032
G1 X106.404 Y144.718 E12.79473
G1 X104.078 Y145.613 E12.88591
G1 X101.757 Y146.584 E12.97796
G1 X99.493 Y147.607 E13.06885
G1 X97.227 Y148.709 E13.16104
G1 X94.996 Y149.871 E13.25307
G1 X92.845 Y151.072 E13.34321
G1 X90.65 Y152.381 E13.43671
G1 X88.575 Y153.699 E13.52664
G1 X86.482 Y155.113 E13.61906
G1 X84.475 Y156.553 E13.70943
G1 X82.45 Y158.095 E13.80255
G1 X80.496 Y159.671 E13.8944
G1 X78.596 Y161.295 E13.98584
G1 X77.644 Y162.14 E14.03241
G1 X76.85 Y162.78 E14.06972
G1 X76.035 Y163.327 E14.10564
G1 X75.082 Y163.848 E14.14537
G1 X73.827 Y164.372 E14.19513
G1 X73.154 Y164.604 E14.22117
G1 X72.287 Y164.86 E14.25425
G1 X71.17 Y165.084 E14.29593
G1 X70.181 Y165.192 E14.33233
G1 X69.644 Y165.213 E14.35199
G1 X68.834 Y165.225 E14.38163
G1 X18.527 Y165.227 E16.22217
G1 X17.626 Y165.213 E16.25513
G1 X16.608 Y165.148 E16.29246
G1 X15.636 Y165.001 E16.32842
G1 X14.607 Y164.75 E16.36717
G1 X13.644 Y164.42 E16.40442
G1 X12.709 Y164.007 E16.44181
G1 X11.884 Y163.552 E16.47628
G1 X11.003 Y162.963 E16.51505
G1 X10.179 Y162.294 E16.55389
G1 X9.467 Y161.602 E16.59021
G1 X8.622 Y160.601 E16.63814
G1 X8.239 Y160.088 E16.66156
G1 X7.668 Y159.244 E16.69884
G1 X7.226 Y158.455 E16.73193
G1 X6.76 Y157.415 E16.77363
G1 X6.431 Y156.45 E16.81093
G1 X6.187 Y155.461 E16.8482
G1 X6.046 Y154.568 E16.88127
G1 X5.967 Y153.397 E16.92421
G1 X5.954 Y152.562 E16.95476
G1 X5.953 Y46.71 E20.82748
G1 X5.967 Y45.804 E20.86063
G1 X6.032 Y44.788 E20.89788
G1 X6.178 Y43.816 E20.93384
G1 X6.429 Y42.786 E20.97263
G1 X6.745 Y41.856 E21.00856
G1 X7.173 Y40.889 E21.04725
G1 X7.644 Y40.035 E21.08293
G1 X8.116 Y39.318 E21.11434
G1 X8.475 Y38.818 E21.13686
G1 X9.121 Y38.002 E21.17494
G1 X9.822 Y37.262 E21.21223
G1 X10.526 Y36.635 E21.24672
G1 X11.409 Y35.981 E21.28692
G1 X12.28 Y35.45 E21.32424
G0 F6000 X13.321 Y35.424
G1 F1200 X14.235 Y35.065 E21.36017
G1 X15.214 Y34.779 E21.39749
G1 X16.139 Y34.595 E21.43199
G1 X17.135 Y34.486 E21.46865
G1 X17.629 Y34.466 E21.48674
G1 X18.793 Y34.446 E21.52933
G1 X68.899 Y34.447 E23.36251
G1 X69.622 Y34.457 E23.38897
G1 X70.225 Y34.483 E23.41105
G1 X72.529 Y34.672 E23.49563
G1 X74.997 Y34.812 E23.58607
G1 X77.554 Y34.884 E23.67966
G1 X80.039 Y34.884 E23.77057
G1 X82.578 Y34.812 E23.8635
G1 X85.114 Y34.67 E23.95643
G1 X87.549 Y34.463 E24.04584
G1 X90.074 Y34.176 E24.13881
G1 X92.571 Y33.82 E24.23109
G1 X95.068 Y33.395 E24.32376
G1 X97.502 Y32.906 E24.41459
G1 X99.953 Y32.341 E24.50662
G1 X102.386 Y31.708 E24.59859
G1 X104.835 Y30.997 E24.69189
G1 X107.228 Y30.227 E24.78386
G1 X109.573 Y29.4 E24.87484
G1 X111.889 Y28.509 E24.96563
G1 X114.266 Y27.515 E25.05989
G1 X116.515 Y26.5 E25.15016
G1 X118.823 Y25.377 E25.24407
G1 X121.037 Y24.222 E25.33543
G1 X123.198 Y23.017 E25.42595
G1 X125.383 Y21.714 E25.51903
G1 X127.525 Y20.355 E25.61184
G1 X129.572 Y18.973 E25.7022
G1 X131.626 Y17.501 E25.79465
G1 X133.661 Y15.951 E25.88824
G1 X135.577 Y14.406 E25.97829
G1 X137.78 Y12.533 E26.08409
G1 X138.555 Y11.929 E26.12003
G1 X139.38 Y11.398 E26.15593
G1 X140.179 Y10.974 E26.18902
G1 X141.154 Y10.563 E26.22773
G1 X142.014 Y10.286 E26.26079
G1 X143.048 Y10.053 E26.29957
G1 X143.944 Y9.932 E26.33265
G1 X144.644 Y9.888 E26.35831
G1 X145.283 Y9.873 E26.38169
G1 X158.332 Y9.873 E26.85911
G1 X159.217 Y9.886 E26.89149
G1 X160.196 Y9.947 E26.92738
G1 X161.168 Y10.093 E26.96334
G1 X162.121 Y10.326 E26.99923
G1 X163.051 Y10.642 E27.03517
G1 X163.948 Y11.039 E27.07105
G1 X164.807 Y11.513 E27.10695
G1 X165.591 Y12.038 E27.14147
G1 X166.385 Y12.681 E27.17885
G1 X167.089 Y13.363 E27.21471
G1 X167.682 Y14.045 E27.24778
G1 X168.305 Y14.903 E27.28657
G1 X168.769 Y15.679 E27.31965
G1 X169.229 Y16.634 E27.35843
G1 X169.574 Y17.553 E27.39434
G1 X169.837 Y18.499 E27.43027
G1 X170.003 Y19.387 E27.46332
G1 X170.114 Y20.678 E27.51072
G1 X170.127 Y21.303 E27.5336
G1 X170.126 Y34.479 E28.01566
G1 X170.116 Y35.202 E28.04211
G1 X170.089 Y35.807 E28.06427
G1 X169.979 Y37.346 E28.12072
G1 X169.839 Y39.877 E28.21346
G1 X169.77 Y42.414 E28.30631
G1 X169.774 Y44.898 E28.39719
G1 X169.848 Y47.431 E28.4899
G1 X170.096 Y51.291 E28.63142
G1 X170.127 Y52.303 E28.66846
G1 X170.126 Y65.479 E29.15052
G1 X170.116 Y66.202 E29.17697
G1 X170.089 Y66.807 E29.19913
G1 X169.979 Y68.346 E29.25558
G1 X169.839 Y70.877 E29.34832
G1 X169.77 Y73.414 E29.44117
G1 X169.774 Y75.898 E29.53205
G1 X169.848 Y78.431 E29.62477
G1 X170.096 Y82.291 E29.76628
G1 X170.127 Y83.303 E29.80332
G1 X170.126 Y96.479 E30.28538
G1 X170.116 Y97.202 E30.31184
G1 X170.089 Y97.807 E30.33399
G1 X169.979 Y99.346 E30.39044
G1 X169.839 Y101.877 E30.48318
G1 X169.77 Y104.414 E30.57604
G1 X169.774 Y106.898 E30.66692
G1 X169.848 Y109.431 E30.75963
G1 X170.096 Y113.291 E30.90114
G1 X170.127 Y114.303 E30.93818
G1 X170.126 Y127.429 E31.41841
G1 X170.115 Y128.196 E31.44648
G1 X170.056 Y129.175 E31.48236
G1 X169.911 Y130.146 E31.51828
G1 X169.702 Y131.025 E31.55134
G1 X169.366 Y132.031 E31.59014
G1 X168.971 Y132.928 E31.626
G1 X168.499 Y133.79 E31.66196
G1 X167.951 Y134.605 E31.69789
G1 X167.36 Y135.34 E31.73239
G1 X166.653 Y136.074 E31.76968
G1 X165.941 Y136.694 E31.80422
G1 X165.115 Y137.293 E31.84155
G1 X164.306 Y137.777 E31.87604
G1 X163.387 Y138.22 E31.91337
G1 X162.469 Y138.567 E31.94927
G1 X161.523 Y138.831 E31.9852
G1 X160.591 Y139.005 E32.01989
G1 X159.322 Y139.114 E32.06649
G1 X158.697 Y139.127 E32.08936
G1 X145.523 Y139.126 E32.57135
G1 X144.791 Y139.116 E32.59813
G1 X144.19 Y139.089 E32.62014
G1 X143.444 Y139.036 E32.6475
G1 X140.805 Y138.887 E32.74421
G1 X138.273 Y138.815 E32.83688
G1 X135.792 Y138.815 E32.92765
G1 X133.26 Y138.887 E33.02033
G1 X130.722 Y139.03 E33.11333
G1 X128.274 Y139.239 E33.20322
G1 X125.739 Y139.527 E33.29656
G1 X123.256 Y139.88 E33.38832
G1 X120.78 Y140.303 E33.48022
G1 X118.352 Y140.79 E33.57082
G1 X115.846 Y141.368 E33.66491
G1 X113.448 Y141.993 E33.75557
G1 X111.01 Y142.701 E33.84846
G1 X108.628 Y143.466 E33.93999
G1 X106.246 Y144.307 E34.03241
G1 X103.92 Y145.202 E34.12359
G1 X101.587 Y146.178 E34.21611
G1 X99.301 Y147.211 E34.30789
G1 X97.035 Y148.313 E34.40008
G1 X94.781 Y149.487 E34.49306
G1 X92.63 Y150.688 E34.58319
G1 X90.425 Y152.003 E34.67712
G1 X88.329 Y153.334 E34.76796
G1 X86.225 Y154.755 E34.86085
G1 X84.218 Y156.195 E34.95122
G1 X82.183 Y157.745 E35.04481
G1 X80.22 Y159.328 E35.13708
G1 X78.31 Y160.961 E35.22901
G1 X77.368 Y161.798 E35.27512
G1 X76.604 Y162.415 E35.31105
G1 X75.823 Y162.941 E35.3455
G1 X74.912 Y163.442 E35.38353
G1 X73.683 Y163.956 E35.43227
G1 X73.029 Y164.182 E35.45759
G1 X72.162 Y164.438 E35.49066
G1 X71.122 Y164.647 E35.52947
G1 X70.163 Y164.752 E35.56477
G1 X69.637 Y164.773 E35.58403
G1 X68.834 Y164.785 E35.61341
G1 X18.533 Y164.787 E37.45373
G1 X17.653 Y164.774 E37.48593
G1 X16.674 Y164.713 E37.52182
G1 X15.702 Y164.566 E37.55778
G1 X14.749 Y164.333 E37.59368
G1 X13.821 Y164.017 E37.62954
G1 X12.921 Y163.621 E37.66552
G1 X12.129 Y163.186 E37.69858
G1 X11.248 Y162.597 E37.73735
G1 X10.486 Y161.978 E37.77327
G1 X9.774 Y161.286 E37.80959
G1 X8.974 Y160.337 E37.855
G1 X8.603 Y159.841 E37.87766
G1 X8.052 Y159.029 E37.91357
G1 X7.61 Y158.24 E37.94665
G1 X7.176 Y157.272 E37.98547
G1 X6.858 Y156.344 E38.02136
G1 X6.622 Y155.392 E38.05724
G1 X6.481 Y154.499 E38.09032
G1 X6.407 Y153.39 E38.13098
G1 X6.394 Y152.562 E38.16128
G1 X6.393 Y46.716 E42.03377
G1 X6.406 Y45.831 E42.06616
G1 X6.467 Y44.853 E42.10201
G1 X6.613 Y43.881 E42.13797
G1 X6.846 Y42.928 E42.17386
G1 X7.162 Y41.998 E42.2098
G1 X7.559 Y41.101 E42.24569
G1 X8.012 Y40.277 E42.28009
G1 X8.474 Y39.574 E42.31087
G1 X8.82 Y39.091 E42.3326
G1 X9.441 Y38.304 E42.36928
G1 X10.115 Y37.591 E42.40518
G1 X10.819 Y36.964 E42.43967
G1 X11.639 Y36.356 E42.47702
G1 X12.476 Y35.844 E42.51291
G1 X13.321 Y35.424 E42.54744
G0 F6000 X14.396 Y35.475
G1 F1200 X15.3 Y35.211 E42.58189
G1 X16.225 Y35.027 E42.6164
G1 X17.153 Y34.926 E42.65055
G1 X17.637 Y34.906 E42.66827
G1 X18.793 Y34.886 E42.71057
G1 X68.893 Y34.887 E44.54354
G1 X69.603 Y34.897 E44.56952
G1 X70.189 Y34.922 E44.59098
G1 X72.493 Y35.11 E44.67555
G1 X74.985 Y35.252 E44.76687
G1 X77.542 Y35.324 E44.86046
G1 X80.051 Y35.324 E44.95225
G1 X82.59 Y35.252 E45.04518
G1 X85.139 Y35.109 E45.13859
G1 X87.599 Y34.9 E45.22891
G1 X90.136 Y34.612 E45.32233
G1 X92.633 Y34.256 E45.41461
G1 X95.142 Y33.828 E45.50773
G1 X97.601 Y33.335 E45.59949
G1 X100.052 Y32.77 E45.69151
G1 X102.509 Y32.131 E45.78439
G1 X104.958 Y31.42 E45.87769
G1 X107.363 Y30.646 E45.97013
G1 X109.731 Y29.811 E46.06199
G1 X112.047 Y28.92 E46.15278
G1 X114.436 Y27.921 E46.24752
G1 X116.708 Y26.896 E46.33871
G1 X119.016 Y25.773 E46.43261
G1 X121.241 Y24.612 E46.52443
G1 X123.423 Y23.395 E46.61584
G1 X125.619 Y22.086 E46.70938
G1 X127.761 Y20.727 E46.80218
G1 X129.829 Y19.331 E46.89347
G1 X131.882 Y17.858 E46.98591
G1 X133.937 Y16.294 E47.0804
G1 X135.853 Y14.749 E47.17045
G1 X138.051 Y12.88 E47.27601
G1 X138.794 Y12.299 E47.31051
G1 X139.586 Y11.787 E47.34502
G1 X140.385 Y11.363 E47.37811
G1 X141.289 Y10.982 E47.414
G1 X142.149 Y10.705 E47.44706
G1 X143.107 Y10.489 E47.48299
G1 X144.003 Y10.368 E47.51607
G1 X144.654 Y10.328 E47.53993
G1 X145.293 Y10.313 E47.56331
G1 X158.326 Y10.313 E48.04014
G1 X159.19 Y10.325 E48.07175
G1 X160.131 Y10.382 E48.10624
G1 X161.064 Y10.521 E48.14076
G1 X161.98 Y10.743 E48.17524
G1 X162.874 Y11.045 E48.20976
G1 X163.736 Y11.425 E48.24423
G1 X164.562 Y11.879 E48.27871
G1 X165.346 Y12.404 E48.31323
G1 X166.079 Y12.997 E48.34773
G1 X166.757 Y13.652 E48.38222
G1 X167.35 Y14.334 E48.41528
G1 X167.927 Y15.129 E48.45122
G1 X168.391 Y15.905 E48.4843
G1 X168.817 Y16.789 E48.5202
G1 X169.15 Y17.671 E48.5547
G1 X169.404 Y18.58 E48.58923
G1 X169.57 Y19.468 E48.62228
G1 X169.674 Y20.687 E48.66704
G1 X169.687 Y21.303 E48.68958
G1 X169.686 Y34.473 E49.17142
G1 X169.676 Y35.183 E49.1974
G1 X169.65 Y35.776 E49.21912
G1 X169.54 Y37.315 E49.27557
G1 X169.399 Y39.865 E49.369
G1 X169.33 Y42.402 E49.46186
G1 X169.334 Y44.911 E49.55365
G1 X169.408 Y47.444 E49.64636
G1 X169.656 Y51.305 E49.78791
G1 X169.687 Y52.303 E49.82444
G1 X169.686 Y65.473 E50.30628
G1 X169.676 Y66.183 E50.33226
G1 X169.65 Y66.776 E50.35398
G1 X169.54 Y68.315 E50.41043
G1 X169.399 Y70.865 E50.50387
G1 X169.33 Y73.402 E50.59672
G1 X169.334 Y75.911 E50.68851
G1 X169.408 Y78.444 E50.78123
G1 X169.656 Y82.305 E50.92278
G1 X169.687 Y83.303 E50.95931
G1 X169.686 Y96.473 E51.44115
G1 X169.676 Y97.183 E51.46712
G1 X169.65 Y97.776 E51.48884
G1 X169.54 Y99.315 E51.54529
G1 X169.399 Y101.865 E51.63873
G1 X169.33 Y104.402 E51.73158
G1 X169.334 Y106.911 E51.82338
G1 X169.408 Y109.444 E51.91609
G1 X169.656 Y113.305 E52.05764
G1 X169.687 Y114.303 E52.09417
G1 X169.686 Y127.423 E52.57418
G1 X169.676 Y128.17 E52.60151
G1 X169.621 Y129.111 E52.636
